pic/remote-control.svg

<svg xmlns="http://www.w3.org/2000/svg" width="260" height="480" viewBox="0 0 260 480">
  <g fill="none" fill-rule="evenodd">
    <rect width="118" height="478" x="141" y="1" stroke="#FFF" stroke-width="2" opacity=".6" rx="16"/>
    <path fill="#FFF" d="M200 211C225.957383 211 247 232.042617 247 258 247 283.957383 225.957383 305 200 305 174.042617 305 153 283.957383 153 258 153 232.042617 174.042617 211 200 211zM200 213C175.147186 213 155 233.147186 155 258 155 282.852814 175.147186 303 200 303 224.852814 303 245 282.852814 245 258 245 233.147186 224.852814 213 200 213zM147 256C148.104569 256 149 256.895431 149 258 149 259.104569 148.104569 260 147 260 145.895431 260 145 259.104569 145 258 145 256.895431 145.895431 256 147 256zM147 257C146.447715 257 146 257.447715 146 258 146 258.552285 146.447715 259 147 259 147.552285 259 148 258.552285 148 258 148 257.447715 147.552285 257 147 257z" opacity=".8"/>
    <circle cx="200" cy="205" r="2" fill="#FFF" opacity=".8"/>
    <path fill="#FFF" d="M200,233 C202.755805,233 205,235.238591 205,238.000032 L205,238.000032 L205,277.999968 C205,280.754469 202.761424,283 200,283 L200,283 L199.783531,282.99538 C197.127634,282.881817 195,280.68874 195,277.999968 L195,277.999968 L195,238.000032 C195,235.245531 197.238576,233 200,233 Z M200,234 C197.790861,234 196,235.794052 196,238.009893 L196,277.990107 C196,280.1376 197.688195,281.890809 199.800744,281.995093 L200,282 C202.209139,282 204,280.205948 204,277.990107 L204,238.009893 C204,235.79529 202.204644,234 200,234 Z" opacity=".8"/>
    <rect width="118" height="478" x="1" y="1" stroke="#FFF" stroke-width="2" opacity=".6" rx="16"/>
    <path fill="#FFF" d="M29 166C41.7025492 166 52 176.297451 52 189 52 201.702549 41.7025492 212 29 212 16.2974508 212 6 201.702549 6 189 6 176.297451 16.2974508 166 29 166zM29 168C17.4020203 168 8 177.40202 8 189 8 200.59798 17.4020203 210 29 210 40.5979797 210 50 200.59798 50 189 50 177.40202 40.5979797 168 29 168zM18.07 186L18.95 188.71C19.19 189.5 19.4 190.3 19.57 191.05L19.57 191.05 19.6 191.05C19.78 190.32 20.01 189.49 20.27 188.7L20.27 188.7 21.2 186 22.8 186 23.19 192.74 21.99 192.74 21.86 189.99C21.82 189.12 21.77 188.07 21.78 187.16L21.78 187.16 21.75 187.16C21.53 187.98 21.25 188.89 20.95 189.74L20.95 189.74 19.97 192.66 19.02 192.66 18.12 189.78C17.86 188.92 17.62 188 17.44 187.16L17.44 187.16 17.42 187.16C17.39 188.04 17.35 189.11 17.3 190.03L17.3 190.03 17.15 192.74 16 192.74 16.45 186 18.07 186zM28.41 188.75L25.87 188.75 25.87 187.01 28.56 187.01 28.56 186 24.64 186 24.64 192.74 28.71 192.74 28.71 191.73 25.87 191.73 25.87 189.75 28.41 189.75 28.41 188.75zM31.12 192.74L31.12 190.33C31.12 189.22 31.11 188.33 31.06 187.46L31.09 187.45C31.42 188.21 31.87 189.04 32.3 189.78L34.06 192.74 35.33 192.74 35.33 186 34.19 186 34.19 188.35C34.19 189.38 34.22 190.25 34.3 191.15L34.28 191.15C33.97 190.42 33.58 189.64 33.13 188.89L31.39 186 29.99 186 29.99 192.74 31.12 192.74zM36.9400001 186L36.9400001 189.86C36.9400001 191.98 37.9500001 192.85 39.5100001 192.85 41.1300001 192.85 42.2000001 191.93 42.2000001 189.85L42.2000001 186 40.9700001 186 40.9700001 189.93C40.9700001 191.25 40.4400001 191.86 39.5500001 191.86 38.7200001 191.86 38.1700001 191.25 38.1700001 189.93L38.1700001 186 36.9400001 186zM91 166C103.702549 166 114 176.297451 114 189 114 201.702549 103.702549 212 91 212 78.2974508 212 68 201.702549 68 189 68 176.297451 78.2974508 166 91 166zM91 168C79.4020203 168 70 177.40202 70 189 70 200.59798 79.4020203 210 91 210 102.59798 210 112 200.59798 112 189 112 177.40202 102.59798 168 91 168zM83 185L90.2753906 189.199219 83 193.398438 83 185zM94.3613281 193.198242L94.3613281 185.488281 95.8066406 185.488281 95.8066406 193.198242 94.3613281 193.198242zM97.6132813 193.198242L97.6132813 185.488281 99.0585938 185.488281 99.0585938 193.198242 97.6132813 193.198242zM60 45C89.8233765 45 114 69.1766235 114 99 114 128.823376 89.8233765 153 60 153 30.1766235 153 6 128.823376 6 99 6 69.1766235 30.1766235 45 60 45zM60 47C31.281193 47 8 70.281193 8 99 8 127.718807 31.281193 151 60 151 88.718807 151 112 127.718807 112 99 112 70.281193 88.718807 47 60 47zM60 145C61.1045695 145 62 145.895431 62 147 62 148.104569 61.1045695 149 60 149 58.8954305 149 58 148.104569 58 147 58 145.895431 58.8954305 145 60 145zM60 72C74.9116882 72 87 84.0883118 87 99 87 113.911688 74.9116882 126 60 126 45.0883118 126 33 113.911688 33 99 33 84.0883118 45.0883118 72 60 72zM60 73C45.6405965 73 34 84.6405965 34 99 34 113.359403 45.6405965 125 60 125 74.3594035 125 86 113.359403 86 99 86 84.6405965 74.3594035 73 60 73zM108 97C109.104569 97 110 97.8954305 110 99 110 100.104569 109.104569 101 108 101 106.895431 101 106 100.104569 106 99 106 97.8954305 106.895431 97 108 97zM12 97C13.1045695 97 14 97.8954305 14 99 14 100.104569 13.1045695 101 12 101 10.8954305 101 10 100.104569 10 99 10 97.8954305 10.8954305 97 12 97zM60 49C61.1045695 49 62 49.8954305 62 51 62 52.1045695 61.1045695 53 60 53 58.8954305 53 58 52.1045695 58 51 58 49.8954305 58.8954305 49 60 49z" opacity=".8"/>
  </g>
</svg>

<svg xmlns="http://www.w3.org/2000/svg" width="260" height="480" viewBox="0 0 260 480"><g fill="#FFF" fill-rule="evenodd"><rect width="119" height="479" x="140.5" y=".5" fill-opacity=".2" stroke="#FFF" stroke-opacity=".6" rx="16"/><path d="M200 211c25.957 0 47 21.043 47 47s-21.043 47-47 47-47-21.043-47-47 21.043-47 47-47zm0 2c-24.853 0-45 20.147-45 45s20.147 45 45 45 45-20.147 45-45-20.147-45-45-45z"/><path d="M147 256a2 2 0 1 1 0 4 2 2 0 0 1 0-4zm0 1a1 1 0 1 0 0 2 1 1 0 0 0 0-2z" opacity=".8"/><circle cx="200" cy="205" r="2" opacity=".8"/><path d="M200 233c2.756 0 5 2.239 5 5v40c0 2.754-2.239 5-5 5l-.216-.005A5.004 5.004 0 0 1 195 278v-40c0-2.754 2.239-5 5-5zm0 1c-2.21 0-4 1.794-4 4.01v39.98c0 2.148 1.688 3.9 3.8 4.005l.2.005c2.21 0 4-1.794 4-4.01v-39.98a4.008 4.008 0 0 0-4-4.01z" opacity=".8"/><rect width="119" height="479" x=".5" y=".5" fill-opacity=".2" stroke="#FFF" stroke-opacity=".6" rx="16"/><path d="M29 166c12.703 0 23 10.297 23 23s-10.297 23-23 23-23-10.297-23-23 10.297-23 23-23zm0 2c-11.598 0-21 9.402-21 21s9.402 21 21 21 21-9.402 21-21-9.402-21-21-21z"/><path fill-opacity=".8" d="M38.17 186v3.93c0 1.32.55 1.93 1.38 1.93.89 0 1.42-.61 1.42-1.93V186h1.23v3.85c0 2.08-1.07 3-2.69 3-1.56 0-2.57-.87-2.57-2.99V186h1.23zm-20.1 0l.88 2.71c.24.79.45 1.59.62 2.34h.03c.18-.73.41-1.56.67-2.35l.93-2.7h1.6l.39 6.74h-1.2l-.13-2.75c-.04-.87-.09-1.92-.08-2.83h-.03c-.22.82-.5 1.73-.8 2.58l-.98 2.92h-.95l-.9-2.88c-.26-.86-.5-1.78-.68-2.62h-.02c-.03.88-.07 1.95-.12 2.87l-.15 2.71H16l.45-6.74h1.62zm10.49 0v1.01h-2.69v1.74h2.54v1h-2.54v1.98h2.84v1.01h-4.07V186h3.92zm2.83 0l1.74 2.89c.45.75.84 1.53 1.15 2.26h.02c-.08-.9-.11-1.77-.11-2.8V186h1.14v6.74h-1.27l-1.76-2.96c-.43-.74-.88-1.57-1.21-2.33l-.03.01c.05.87.06 1.76.06 2.87v2.41h-1.13V186h1.4z"/><path d="M91 166c12.703 0 23 10.297 23 23s-10.297 23-23 23-23-10.297-23-23 10.297-23 23-23zm0 2c-11.598 0-21 9.402-21 21s9.402 21 21 21 21-9.402 21-21-9.402-21-21-21z"/><path d="M83 185l7.275 4.2L83 193.397V185zm12.807.488v7.71H94.36v-7.71h1.446zm3.252 0v7.71h-1.446v-7.71h1.446z" opacity=".8"/><path d="M60 45c29.823 0 54 24.177 54 54s-24.177 54-54 54S6 128.823 6 99s24.177-54 54-54zm0 2C31.281 47 8 70.281 8 99s23.281 52 52 52 52-23.281 52-52-23.281-52-52-52zm0 98a2 2 0 1 1 0 4 2 2 0 0 1 0-4zm48-48a2 2 0 1 1 0 4 2 2 0 0 1 0-4zm-96 0a2 2 0 1 1 0 4 2 2 0 0 1 0-4zm48-48a2 2 0 1 1 0 4 2 2 0 0 1 0-4z"/><path d="M60 72c14.912 0 27 12.088 27 27s-12.088 27-27 27-27-12.088-27-27 12.088-27 27-27zm0 1c-14.36 0-26 11.64-26 26s11.64 26 26 26 26-11.64 26-26-11.64-26-26-26z" opacity=".8"/></g></svg>
